X:1
T:Title
%%score { ( 1 3 ) | ( 2 4 ) }
L:1/8
M:4/4
K:F
V:1 treble nm="Grand Piano"
V:3 treble 
V:2 bass 
V:4 bass 
V:1
 z4 z2[Q:1/4=100] CC | F2 FF D C2 A | c2 d2 c2 AG | F2 FG A2 [FG]F | [EG]6 CC | F2 FF D C2 A | %6
[M:3/4] c2 d2 c2 |[M:1/4] [DFB]2 |[M:4/4] [CFA]2 [CFA][CFA] [EG][EG] [B,EG]2 |[M:3/4] F6 | %10
[M:1/4] CC |[M:4/4] F2 F2 D C3 | F6 z2 | [FAc]2 [FBd]2 [FAc] [CFA]3 | G6 z2 | c2 cc A2 GF | %16
[M:9/8] B2 B- B d2- ddd |[M:4/4] [Ac]2 [Ad]2 [EA] [EG]3 |[M:3/4] F6 |] %19
V:2
 z4 z2 C,C, | [F,A,C]2 [F,A,C][F,B,C] [F,B,] [F,A,]2 [F,CF] | %2
 [F,A,F]2 [F,B,F]2 [F,A,F]2 [F,CF][F,B,C] | [F,A,C]2 [F,A,C][F,B,C] [F,CF]2 [D,=B,][D,B,] | %4
 [C,C]6 [C,B,][C,B,] | [F,A,C]2 [F,A,C][F,B,C] [F,B,] [F,A,]2 [F,CF] | %6
[M:3/4] [F,A,F]2 [F,B,F]2 [F,A,F]2 |[M:1/4] B,,2 |[M:4/4] C,2 C,C, D,C, C,2 |[M:3/4] [F,A,]6 | %10
[M:1/4] [C,B,][C,B,] |[M:4/4] [F,A,C]2 [F,A,C]2 [F,B,] [F,A,]3 | [A,C]2 B,2 A,2 F,F, | %13
 F,2 F,2 F, F,3 | C,2 D,2 C,2 [C,=B,]2 | [F,A,F]2 [F,A,F][F,A,F] [F,CF]2 [F,B,F][F,A,] | %16
[M:9/8][K:treble] [B,DF]2 [B,DF]- [B,DF] [B,FB]2- [B,FB][B,FB][B,FB] | %17
[M:4/4][K:bass] [F,F]2 [F,C]2 [C,C] [C,B,]3 |[M:3/4] A,2 B,2 A,2 |] %19
V:3
 x8 | x8 | x8 | x8 | x8 | x8 |[M:3/4] x6 |[M:1/4] x2 |[M:4/4] z4 B,2 z2 |[M:3/4] x6 |[M:1/4] x2 | %11
[M:4/4] x8 | z2 D2 C2 [CFA][CGB] | x8 | [CE]2 [=B,F]2 [CE]2 [Ec]2 | x8 |[M:9/8] x9 |[M:4/4] x8 | %18
[M:3/4] z2 D2 C2 |] %19
V:4
 x8 | x8 | x8 | x8 | x8 | x8 |[M:3/4] x6 |[M:1/4] x2 |[M:4/4] x8 |[M:3/4] x6 |[M:1/4] x2 | %11
[M:4/4] x8 | F,6 z2 | x8 | x8 | x8 |[M:9/8][K:treble] x9 |[M:4/4][K:bass] x8 |[M:3/4] F,6 |] %19

